X:1
T:Rimsky-Korsakov Harmonic Exercises,
T:Free Melodic Figuration (2)
T:Rimsky-Korsakov Harmonic Exercises 32, Free Melodic Figuration (2) 
T:"Practical Manual of Harmony" (1885)
T:Realizations by S. Shchetnikov
%%score { ( 1 2 ) | ( 3 4 ) }
L:1/8
Q:1/4=80
M:4/4
K:C
V:1 treble nm="Piano" snm="Pno."
V:2 treble 
V:3 bass 
V:4 bass 
V:1
"^anticipatory tones""^Examples by Rimsky-Korsakov (" (B3 c !breath!c4) |] %1
[M:3/4] (f7/2"^):""^before the chord tones" e/ !breath!e2) |][M:2/4] (d>c !breath!c2) |] %3
[M:3/4] (B3 c !breath!c2) |] %4
[M:4/4][Q:1/2=80]"^Also the                              can be placed in front of diatonic or chromatic""^(in the free style, R-K allows parallel fifths on strong beats in the first measure\nand jumps from the seventh in the second measure):\n" (G2"^anticipatory tones" A2 B2 c2 | %5
 g2 f2 ^c2"^passing tones" d2 |"^auxiliary tones""^," ^d2"^appoggiaturas""^," e2) x4 |] %7
 (GA AB Bc cg | gf f^c cd d^d | ^de) x x x4 |][K:Bb][M:6/8][Q:3/8=60]"^Exercise 32.1" (GAB AGe- | %11
 edA cB=B | dcg ABe | dc>B B3) | (FG_A- A^FG | G=AB d=Bc | edA cBc | BA>G G3) |] %18
"""_g:""^Realization 32.1" (GAB"" AG""e- |"" edA"""_g:""_c:""_{" cB=B | %20
 dcg"""_c:""_B♭:""_{" AB[Q:3/8=60]e | %21
""[Q:3/8=58]"^.6" d""""[Q:3/8=57]"^.1"c>[Q:3/8=55]B""[Q:3/8=54]"^.3""_B♭:""_E♭:""_{" B3) | %22
[Q:3/8=60]"_E♭:" (FG_A-"""_E♭:""_F:""_{" A^FG |"" G=A""B"""_F:""_g:""_{" d=Bc | %24
 edA[Q:3/8=60] c[Q:3/8=57]"^.8"B[Q:3/8=55]"^.6"c | %25
[Q:3/8=53]"^.3" B[Q:3/8=51]"^.1"A>[Q:3/8=47]"^.8"G[Q:3/8=46]"^.7" G3)[Q:3/8=48]"^.9" |] %26
V:2
 (G2 F2 E4) |][M:3/4] (A2 G4) |][M:2/4] (F>E E2) |][M:3/4] (F3 E E2) |][M:4/4] (E4 G4 | A4 G4 | %6
 G4) x4 |] (E4 G4 | A4 G4 | G4) x4 |][K:Bb][M:6/8] x6 | x6 | x6 | x6 | x6 | x6 | x6 | x6 |] %18
 (D3 E3 |"""" G6 |"""" G6 | F2 E"" D3) |"" (B,3-"" B,A,B, | C3"" F3 |"" A3"""" G3 | %25
"""" ^F3"" D3) |] %26
V:3
 (D4 C4) |][M:3/4] (C2 B,>C C2) |][M:2/4] (B,>C C2) |][M:3/4] (D3 C C2) |][M:4/4] (C4 G,4 | %5
 D4 F2 G,2 | G,4) x4 |] (C4 G,4 | D2 F4 G,2 | G,4) x4 |][K:Bb][M:6/8] z6 | z6 | z6 | z6 | z6 | z6 | %16
 z6 | z6 |] (B,A,G, G,2 A, | B,2 C D3 | E3- E2 B, | B, A,2 F,3) | (_A,G,F, E,3 | C2 B,- B,^G,A, | %24
 A,3 D2 E | D2 C B,3) |] %26
V:4
 (G,4 C,4) |][M:3/4] (F,2 G,2 C,2) |][M:2/4] (G,2 A,2) |][M:3/4] (G,3 C, C,2) |][M:4/4] (C,4 E,4 | %5
 D,4 B,,4 | C,4) x4 |] (C,4 E,4 | D,4 B,,4 | C,4) x4 |][K:Bb][M:6/8] x6 | x6 | x6 | x6 | x6 | x6 | %16
 x6 | x6 |] (G,,3 C,3 | G,6 | C,3 E,3 | F,3 B,,3) | (D,3 E,3 | =E,3 F,3 | ^F,3 G,2 C, | %25
 D,3 G,,3) |] %26

